rospo-light/48x48/apps/gpdftext.svg

<?xml version="1.0" encoding="UTF-8" standalone="no"?>
<svg
   xmlns:dc="http://purl.org/dc/elements/1.1/"
   xmlns:cc="http://creativecommons.org/ns#"
   xmlns:rdf="http://www.w3.org/1999/02/22-rdf-syntax-ns#"
   xmlns:svg="http://www.w3.org/2000/svg"
   xmlns="http://www.w3.org/2000/svg"
   xmlns:sodipodi="http://sodipodi.sourceforge.net/DTD/sodipodi-0.dtd"
   xmlns:inkscape="http://www.inkscape.org/namespaces/inkscape"
   height="32"
   width="32"
   version="1"
   id="svg24"
   sodipodi:docname="gpdftext.svg"
   inkscape:version="0.92.1 r">
  <metadata
     id="metadata30">
    <rdf:RDF>
      <cc:Work
         rdf:about="">
        <dc:format>image/svg+xml</dc:format>
        <dc:type
           rdf:resource="http://purl.org/dc/dcmitype/StillImage" />
      </cc:Work>
    </rdf:RDF>
  </metadata>
  <defs
     id="defs28" />
  <sodipodi:namedview
     pagecolor="#ffffff"
     bordercolor="#666666"
     borderopacity="1"
     objecttolerance="10"
     gridtolerance="10"
     guidetolerance="10"
     inkscape:pageopacity="0"
     inkscape:pageshadow="2"
     inkscape:window-width="640"
     inkscape:window-height="480"
     id="namedview26"
     showgrid="false"
     inkscape:zoom="3.1598835"
     inkscape:cx="-47.754732"
     inkscape:cy="8.2332566"
     inkscape:current-layer="svg24" />
  <rect
     style="opacity:1;fill:#e6e6e6;fill-opacity:1;fill-rule:evenodd;stroke:none;stroke-width:1.03534329;stroke-linecap:round;stroke-linejoin:bevel;stroke-miterlimit:4;stroke-dasharray:none;stroke-dashoffset:0;stroke-opacity:1"
     id="rect4497"
     width="28.203388"
     height="28.203388"
     x="1.8983059"
     y="1.8983059"
     ry="5.575182" />
  <rect
     style="fill:#66a02c;stroke-width:1"
     transform="matrix(0,-1,-1,0,0,0)"
     rx="0.80019981"
     ry="0.84261036"
     height="16.003996"
     width="18.404596"
     y="-25.602398"
     x="-23.201797"
     id="rect4" />
  <rect
     style="fill:#7ebc2e;stroke-width:1"
     ry="0.84261036"
     rx="0.80019981"
     transform="matrix(0,-1,-1,0,0,0)"
     height="16.003996"
     width="18.404596"
     y="-22.401598"
     x="-27.202797"
     id="rect6" />
  <path
     style="fill:#ffffff;stroke:#ffffff;stroke-width:0.5"
     inkscape:connector-curvature="0"
     d="m 13.813854,13.307328 c -0.221463,0 -0.428563,0.108403 -0.478663,0.287303 -0.186055,0.685884 0.02216,1.746597 0.369484,3.068287 l -0.10477,0.255871 c -0.265923,0.648218 -0.59831,1.293763 -0.890623,1.866707 -1.206701,2.361389 -2.145495,3.635307 -2.7714917,3.724129 l -0.0024,-0.02593 c -0.013523,-0.294538 0.5299567,-1.053863 1.2667167,-1.657694 0.07682,-0.06218 0.404765,-0.379391 0.404765,-0.379391 0,0 -0.442622,0.233659 -0.542079,0.293914 -0.923191,0.551049 -1.3825059,1.103155 -1.4574846,1.469647 -0.022245,0.108851 -0.008,0.242796 0.088214,0.297794 l 0.236035,0.118558 c 0.6425686,0.321656 1.4327586,-0.524123 2.4831806,-2.365151 1.068907,-0.350656 2.40268,-0.68081 3.616983,-0.859735 1.086991,0.621091 2.333863,0.916789 2.812942,0.789125 0.09117,-0.02409 0.187063,-0.09566 0.236035,-0.161576 0.03841,-0.06066 0.0921,-0.303292 0.0921,-0.303292 0,0 -0.09013,0.122655 -0.164345,0.158816 -0.303204,0.143124 -1.260475,-0.09566 -2.24272,-0.576264 0.849332,-0.09041 1.556869,-0.09389 1.935043,0.02697 0.48024,0.153294 0.480664,0.310429 0.474255,0.342445 0.0064,-0.02633 0.02793,-0.131641 0.02529,-0.17646 -0.01088,-0.115253 -0.04641,-0.218174 -0.133449,-0.303299 -0.177773,-0.175148 -0.616722,-0.26341 -1.214864,-0.271316 -0.450832,-0.0048 -0.991447,0.03457 -1.578234,0.118557 -0.268923,-0.154422 -0.552698,-0.324185 -0.777562,-0.534349 -0.570238,-0.532581 -1.048182,-1.271998 -1.344976,-2.101005 0.02025,-0.07946 0.03969,-0.157127 0.05738,-0.235474 0.0825,-0.370997 0.141723,-1.597519 0.141723,-1.597519 0,0 -0.234947,0.92143 -0.27186,1.060424 -0.02369,0.08814 -0.05321,0.182214 -0.08713,0.280142 -0.180044,-0.632774 -0.271307,-1.245991 -0.271307,-1.711147 0,-0.131457 0.01128,-0.387249 0.04849,-0.589515 0.01808,-0.144252 0.07042,-0.219159 0.124647,-0.255312 0.107339,0.02609 0.227497,0.19064 0.352928,0.465973 0.107715,0.238043 0.100905,0.513728 0.100905,0.684354 0,0 0.115525,-0.422505 0.08879,-0.672215 -0.01632,-0.149918 -0.158903,-0.535574 -0.462115,-0.531053 h -0.02481 l -0.135106,-0.0016 z m 0.103114,3.830956 c 0.313774,0.630886 0.746506,1.229987 1.314168,1.710587 0.126544,0.106971 0.261185,0.208732 0.399788,0.304404 -1.030898,0.19172 -2.113488,0.461404 -3.119579,0.882861 0.181917,-0.323169 0.378622,-0.675265 0.580129,-1.054904 0.390209,-0.737856 0.62666,-1.306966 0.825486,-1.84294 z"
     id="path16" />
  <path
     inkscape:connector-curvature="0"
     style="fill:#ffdf2c;fill-opacity:1;stroke-width:1;enable-background:new"
     d="m 16.95215,23.467086 v 2.464395 h 2.464257 l 6.223773,-6.223773 -2.464257,-2.464257 z m 10.867955,-5.931559 c 0.260656,-0.260641 0.260656,-0.671346 0,-0.932002 l -1.540178,-1.540178 c -0.260656,-0.260656 -0.671361,-0.260656 -0.932004,0 l -1.287515,1.295813 2.464395,2.464395 z"
     id="path20" />
</svg>

<?xml version="1.0" encoding="UTF-8"?>
<svg xmlns="http://www.w3.org/2000/svg" xmlns:xlink="http://www.w3.org/1999/xlink" width="36pt" height="36pt" viewBox="0 0 36 36" version="1.1">
<defs>
<clipPath id="clip1">
  <rect width="36" height="36"/>
</clipPath>
<g id="surface6" clip-path="url(#clip1)">
<path style=" stroke:none;fill-rule:nonzero;fill:rgb(100%,87.45098%,17.254902%);fill-opacity:1;" d="M 19.070312 26.402344 L 19.070312 29.171875 L 21.84375 29.171875 L 28.84375 22.171875 L 26.074219 19.398438 Z M 31.296875 19.726562 C 31.589844 19.433594 31.589844 18.972656 31.296875 18.679688 L 29.566406 16.945312 C 29.273438 16.652344 28.808594 16.652344 28.515625 16.945312 L 27.066406 18.402344 L 29.839844 21.175781 Z M 31.296875 19.726562 "/>
</g>
</defs>
<g id="surface1">
<path style=" stroke:none;fill-rule:evenodd;fill:rgb(90.196078%,90.196078%,90.196078%);fill-opacity:1;" d="M 8.40625 2.136719 L 27.59375 2.136719 C 31.054688 2.136719 33.863281 4.945312 33.863281 8.40625 L 33.863281 27.59375 C 33.863281 31.054688 31.054688 33.863281 27.59375 33.863281 L 8.40625 33.863281 C 4.945312 33.863281 2.136719 31.054688 2.136719 27.59375 L 2.136719 8.40625 C 2.136719 4.945312 4.945312 2.136719 8.40625 2.136719 Z M 8.40625 2.136719 "/>
<path style=" stroke:none;fill-rule:nonzero;fill:rgb(40%,62.745098%,17.254902%);fill-opacity:1;" d="M 28.800781 25.203125 L 28.800781 6.296875 C 28.800781 5.800781 28.378906 5.398438 27.855469 5.398438 L 11.746094 5.398438 C 11.222656 5.398438 10.796875 5.800781 10.796875 6.296875 L 10.796875 25.203125 C 10.796875 25.699219 11.222656 26.101562 11.746094 26.101562 L 27.855469 26.101562 C 28.378906 26.101562 28.800781 25.699219 28.800781 25.203125 Z M 28.800781 25.203125 "/>
<path style=" stroke:none;fill-rule:nonzero;fill:rgb(49.411765%,73.72549%,18.039216%);fill-opacity:1;" d="M 25.203125 29.703125 L 25.203125 10.796875 C 25.203125 10.300781 24.777344 9.898438 24.253906 9.898438 L 8.144531 9.898438 C 7.621094 9.898438 7.199219 10.300781 7.199219 10.796875 L 7.199219 29.703125 C 7.199219 30.199219 7.621094 30.601562 8.144531 30.601562 L 24.253906 30.601562 C 24.777344 30.601562 25.203125 30.199219 25.203125 29.703125 Z M 25.203125 29.703125 "/>
<path style="fill-rule:nonzero;fill:rgb(100%,100%,100%);fill-opacity:1;stroke-width:0.5;stroke-linecap:butt;stroke-linejoin:miter;stroke:rgb(100%,100%,100%);stroke-opacity:1;stroke-miterlimit:4;" d="M 13.8125 13.309028 C 13.59375 13.309028 13.385417 13.416667 13.336806 13.59375 C 13.149306 14.28125 13.357639 15.340278 13.704861 16.663194 L 13.600694 16.920139 C 13.333333 17.565972 13 18.211806 12.708333 18.784722 C 11.503472 21.145833 10.5625 22.420139 9.9375 22.510417 L 9.934028 22.482639 C 9.920139 22.1875 10.465278 21.430556 11.201389 20.826389 C 11.277778 20.763889 11.607639 20.447917 11.607639 20.447917 C 11.607639 20.447917 11.163194 20.680556 11.065972 20.739583 C 10.142361 21.291667 9.680556 21.84375 9.607639 22.211806 C 9.583333 22.319444 9.600694 22.451389 9.694444 22.506944 L 9.930556 22.625 C 10.572917 22.947917 11.364583 22.100694 12.413194 20.260417 C 13.482639 19.909722 14.815972 19.579861 16.03125 19.402778 C 17.118056 20.024306 18.364583 20.319444 18.84375 20.190972 C 18.9375 20.166667 19.03125 20.09375 19.079861 20.027778 C 19.118056 19.96875 19.173611 19.725694 19.173611 19.725694 C 19.173611 19.725694 19.083333 19.847222 19.006944 19.885417 C 18.704861 20.027778 17.746528 19.788194 16.767361 19.309028 C 17.614583 19.21875 18.322917 19.215278 18.701389 19.336806 C 19.180556 19.489583 19.180556 19.645833 19.173611 19.677083 C 19.180556 19.652778 19.201389 19.545139 19.201389 19.5 C 19.190972 19.385417 19.152778 19.284722 19.065972 19.197917 C 18.888889 19.024306 18.451389 18.934028 17.850694 18.927083 C 17.402778 18.923611 16.861111 18.961806 16.274306 19.045139 C 16.003472 18.892361 15.722222 18.722222 15.496528 18.510417 C 14.927083 17.979167 14.447917 17.239583 14.152778 16.409722 C 14.170139 16.329861 14.190972 16.253472 14.208333 16.173611 C 14.291667 15.802083 14.350694 14.576389 14.350694 14.576389 C 14.350694 14.576389 14.114583 15.5 14.079861 15.638889 C 14.055556 15.725694 14.024306 15.819444 13.993056 15.916667 C 13.8125 15.284722 13.71875 14.670139 13.71875 14.204861 C 13.71875 14.076389 13.732639 13.819444 13.767361 13.618056 C 13.788194 13.472222 13.840278 13.399306 13.892361 13.361111 C 14 13.388889 14.121528 13.552083 14.246528 13.826389 C 14.354167 14.065972 14.347222 14.340278 14.347222 14.510417 C 14.347222 14.510417 14.461806 14.090278 14.4375 13.840278 C 14.420139 13.690972 14.277778 13.305556 13.972222 13.309028 L 13.947917 13.309028 L 13.8125 13.305556 Z M 13.916667 17.138889 C 14.229167 17.770833 14.663194 18.368056 15.232639 18.847222 C 15.357639 18.954861 15.493056 19.059028 15.631944 19.152778 C 14.600694 19.34375 13.517361 19.614583 12.510417 20.034722 C 12.694444 19.711806 12.888889 19.361111 13.090278 18.982639 C 13.482639 18.243056 13.71875 17.673611 13.916667 17.138889 Z M 13.916667 17.138889 " transform="matrix(1.125,0,0,1.125,0,0)"/>
<use xlink:href="#surface6"/>
</g>
</svg>
